packages/icon/src/svg/menu.icon.svg

<?xml version="1.0" encoding="UTF-8"?>
<svg width="24px" height="24px" viewBox="0 0 24 24" version="1.1" xmlns="http://www.w3.org/2000/svg" xmlns:xlink="http://www.w3.org/1999/xlink">
    <!-- Generator: Sketch 46.1 (44463) - http://www.bohemiancoding.com/sketch -->
    <title>Icon/menu.icon</title>
    <desc>Created with Sketch.</desc>
    <defs>
        <path d="M22,11 L22,13 L2,13 L2,11 L22,11 Z M2,17 L21.9794617,17 L21.9794617,19 L2,19 L2,17 Z M2,5 L21.9772998,5 L21.9772998,7 L2,7 L2,5 Z" id="path-1"></path>
    </defs>
    <g id="Symbols" stroke="none" stroke-width="1" fill="none" fill-rule="evenodd">
        <g id="Icon/menu">
            <mask id="mask-2" fill="white">
                <use xlink:href="#path-1"></use>
            </mask>
            <use id="icon-collapse-sidebar" fill="#000000" xlink:href="#path-1"></use>
            <g id="Color/Neutral/White" mask="url(#mask-2)" fill="#FFFFFF">
                <rect id="222222-Fill" x="0" y="0" width="24" height="24"></rect>
            </g>
        </g>
    </g>
</svg>

<svg viewBox="0 0 24 24" xmlns="http://www.w3.org/2000/svg"><path d="M22 11v2H2v-2h20zM2 17h19.9795v2H2v-2zM2 5h19.9773v2H2V5z" /></svg>
